_src/static/img/icon/vk.svg

<svg width="19" height="12" viewBox="0 0 19 12" fill="none" xmlns="http://www.w3.org/2000/svg">
<path d="M10.1395 11.1896C10.5889 11.1896 10.7726 10.89 10.7674 10.5144C10.7446 9.09987 11.2943 8.33836 12.2867 9.33083C13.3847 10.4288 13.612 11.1896 14.9454 11.1896H17.3066C17.9028 11.1896 18.1375 10.9977 18.1375 10.6967C18.1375 10.0599 17.0889 8.93605 16.2005 8.11109C14.9564 6.95629 14.8981 6.92899 15.9696 5.5388C17.2985 3.81288 19.037 1.60142 17.4992 1.60142H14.5617C13.992 1.60142 13.9507 1.9224 13.7478 2.40055C13.0136 4.13238 11.6182 6.37557 11.0884 6.03245C10.5343 5.67458 10.7881 4.25709 10.8301 2.15041C10.8412 1.59404 10.8383 1.21255 9.98821 1.01479C9.52408 0.907799 9.07249 0.863525 8.65337 0.863525C6.97614 0.863525 5.81913 1.56674 6.47659 1.68923C7.63582 1.90543 7.52439 4.41352 7.25433 5.49674C6.78355 7.38279 5.01409 4.00325 4.27694 2.32012C4.09911 1.91576 4.0445 1.60142 3.40992 1.60142H1.00808C0.645038 1.60142 0.427361 1.71948 0.427361 1.98217C0.427361 2.42638 2.61152 6.9408 4.6968 9.19136C6.73042 11.3866 8.74044 11.1896 10.1395 11.1896Z" fill="#1B3ACD"/>
</svg>

<svg width="19" height="12" fill="none" xmlns="http://www.w3.org/2000/svg"><path d="M10.14 11.19c.449 0 .633-.3.627-.676-.022-1.414.527-2.176 1.52-1.183 1.098 1.098 1.325 1.859 2.658 1.859h2.362c.596 0 .83-.192.83-.493 0-.637-1.048-1.76-1.936-2.586-1.245-1.155-1.303-1.182-.231-2.572C17.299 3.813 19.037 1.6 17.5 1.6h-2.938c-.57 0-.611.321-.814.8-.734 1.731-2.13 3.975-2.66 3.631-.554-.357-.3-1.775-.258-3.882.011-.556.008-.937-.842-1.135a5.955 5.955 0 00-1.335-.15c-1.677 0-2.834.703-2.176.825 1.159.216 1.047 2.725.777 3.808-.47 1.886-2.24-1.494-2.977-3.177-.178-.404-.232-.719-.867-.719H1.008c-.363 0-.58.118-.58.381 0 .444 2.184 4.959 4.269 7.21 2.033 2.195 4.043 1.998 5.442 1.998z" fill="#1B3ACD"/></svg>
